X: 1
T: Polska #4 i A
O: Sweden
Z: 2009 John Chambers <jc:trillian.mit.edu>
S: handwritten MS by JC from the 1970s
M: 3/4
L: 1/8
K: A
e \
|: "A"a2 ba af | fe ec Ac | "E7"cB dB GB |1,3 "A"BA Ac e2 :|2,4 "A"A2 A4 :|
|: "A"AB c2 c2 | "D"de f2 f2 |1,3 "E7"ef ga bg |1,3 "A"af fe ec :|2,4 "A"a2 a4 :|
